svg/emoji_u1f5ef.svg

<svg width="128" height="128" viewBox="0 0 128 128" fill="none" xmlns="http://www.w3.org/2000/svg">
<path d="M109.3 53.2L115.9 42.8L106.8 38.8C105.5 38.4 104.4 37.6 103.7 36.3C103 35 103 33.5 103.5 32.1L108.7 17.6L92.9999 26C91.6999 26.6 90.1999 26.5 88.9999 26C87.7999 25.5 86.8999 24.5 86.4999 23.3L82.4999 15.5L75.7999 21.8C73.8999 23.4 71.2999 23.3 69.3999 21.8L54.4999 9.59998L47.2999 21.7C46.0999 24 43.1999 24.9 40.7999 23.8L22.4999 15.1L26.5999 29.6C26.9999 30.9 26.7999 32.4 25.9999 33.6C25.2999 34.8 24.0999 35.6 22.6999 35.8L15.8999 37L18.9999 42.6C19.7999 43.6 20.0999 44.9 19.8999 46.2C19.6999 47.6 18.8999 48.9 17.6999 49.6L8.3999 55.6L20.7999 61.7C22.2999 62.4 23.2999 63.7 23.5999 65.2C23.8999 66.7 23.4999 68.2 22.4999 69.4L17.0999 77.2L24.8999 78.5C26.4999 78.7 27.8999 79.7 28.6999 81.1C29.4999 82.6 29.4999 84.3 28.6999 85.8L11.9999 115.7L42.8999 94.2C44.0999 93.3 45.6999 93.1 47.0999 93.5C48.4999 93.9 49.6999 95 50.2999 96.4L50.3999 96.7L52.2999 103.1L66.9999 94C68.5999 92.9 70.7999 92.9 72.3999 93.9L84.0999 101L85.6999 94.3C85.8999 92.9 86.7999 91.6 87.9999 90.9C89.2999 90.1 90.8999 90 92.2999 90.5L109.2 96.8L103.8 81C103.2 79.7 103.3 78.2 103.9 76.9C104.5 75.6 105.7 74.6 107.1 74.3L120.2 70.4L109.5 59.5C107.9 57.9 107.9 55.1 109.3 53.2Z" fill="white" style="fill:white;fill-opacity:1;"/>
<path d="M126 67.9L114.5 56.3L121.8 44.8L121.9 44.7C122.7 43.4 122.7 41.7 122.1 40.3C121.5 39 120.4 38.1 119 37.7L109.5 33.5L115.3 17.4C116.1 15.6 115.7 13.5 114.3 12C112.9 10.5 110.7 10.1 108.8 10.9L91.6001 20.1L87.2001 11.5C86.7001 10.1 85.7001 9.2 84.4001 8.8C82.9001 8.3 81.1001 8.8 79.8001 9.9L72.7001 16.6L57.5001 4.2C56.3001 3.2 54.8001 2.8 53.3001 3.1C51.8001 3.4 50.6001 4.3 49.9001 5.6L42.6001 18L23.0001 8.7C21.2001 7.9 19.2001 8.1 17.7001 9.4C16.2001 10.7 15.6001 12.6 16.1001 14.5L20.5001 30.2L13.2001 31.4C11.5001 31.7 10.0001 32.9 9.40012 34.6C8.80012 36.1 9.10012 37.9 10.1001 39.2L13.4001 45.2L3.50012 51.6C2.00012 52.6 1.10012 54.4 1.30012 56.2C1.50012 58 2.60012 59.5 4.20012 60.2L17.1001 66.5L11.0001 75.4C9.90012 76.7 9.50012 78.3 10.1001 79.8C10.7001 81.4 12.3001 82.6 14.3001 82.8L22.7001 84.2L4.40012 116.8C3.30012 118.8 3.70012 121.3 5.40012 122.9C6.30012 123.7 7.50012 124.2 8.70012 124.2C9.70012 124.2 10.7001 123.9 11.5001 123.3L45.0001 100L46.9001 106.3L47.0001 106.6C47.6001 108 48.7001 109 50.2001 109.5C51.6001 109.9 53.1001 109.7 54.3001 108.8L69.7001 99.4L82.1001 106.9C83.5001 107.8 85.3001 108 86.8001 107.3C88.3001 106.6 89.4001 105.2 89.6001 103.6L91.2001 96.7L109.1 103.4C111 104.1 113.1 103.6 114.4 102.1C115.7 100.7 116.1 98.6 115.3 96.8L109.5 79.9L123.3 75.8C124.9 75.4 126.2 74.2 126.7 72.6C127.4 71 127.1 69.2 126 67.9ZM107.1 74.4C105.7 74.8 104.5 75.7 103.9 77C103.3 78.3 103.2 79.8 103.8 81.1L109.2 96.9L92.3001 90.6C90.9001 90.1 89.3001 90.2 88.0001 91C86.8001 91.8 85.9001 93 85.7001 94.4L84.1001 101.1L72.4001 94C70.7001 92.9 68.6001 92.9 67.0001 94.1L52.2001 103.1L50.3001 96.7L50.2001 96.4C49.6001 95 48.5001 94 47.0001 93.5C45.5001 93 44.0001 93.3 42.8001 94.2L11.9001 115.7L28.6001 85.8C29.4001 84.3 29.4001 82.6 28.6001 81.1C27.8001 79.7 26.4001 78.7 24.8001 78.5L17.0001 77.2L22.4001 69.4C23.4001 68.2 23.8001 66.7 23.5001 65.2C23.2001 63.6 22.1001 62.3 20.7001 61.7L8.40012 55.6L17.7001 49.6C18.9001 48.8 19.7001 47.6 19.9001 46.2C20.1001 44.9 19.7001 43.6 19.0001 42.6L15.9001 37L22.8001 35.8C24.2001 35.6 25.4001 34.7 26.1001 33.6C26.8001 32.4 27.0001 31 26.7001 29.6L22.6001 15.1L40.9001 23.8C43.3001 24.9 46.1001 24 47.4001 21.7L54.6001 9.6L69.5001 21.8C71.3001 23.4 74.0001 23.4 75.9001 21.8L82.6001 15.6L86.6001 23.4C87.0001 24.6 88.0001 25.6 89.1001 26.1C90.4001 26.7 91.9001 26.7 93.1001 26.1L108.8 17.7L103.6 32.2C103 33.5 103.1 35.1 103.8 36.4C104.4 37.6 105.5 38.5 106.9 38.9L116 42.9L109.4 53.3C108 55.1 108 57.9 109.5 59.7L120.2 70.6L107.1 74.4Z" fill="black" style="fill:black;fill-opacity:1;"/>
</svg>

<?xml version="1.0" encoding="utf-8"?>
<!-- Generator: Adobe Illustrator 25.2.3, SVG Export Plug-In . SVG Version: 6.00 Build 0)  -->
<svg version="1.1" id="Layer_1" xmlns="http://www.w3.org/2000/svg" xmlns:xlink="http://www.w3.org/1999/xlink" x="0px" y="0px"
	 viewBox="0 0 128 128" style="enable-background:new 0 0 128 128;" xml:space="preserve">
<g>
	<path style="fill:#FFFFFF;" d="M109.3,53.2l6.6-10.4l-9.1-4c-1.3-0.4-2.4-1.2-3.1-2.5s-0.7-2.8-0.2-4.2l5.2-14.5L93,26
		c-1.3,0.6-2.8,0.5-4,0s-2.1-1.5-2.5-2.7l-4-7.8l-6.7,6.3c-1.9,1.6-4.5,1.5-6.4,0L54.5,9.6l-7.2,12.1c-1.2,2.3-4.1,3.2-6.5,2.1
		l-18.3-8.7l4.1,14.5c0.4,1.3,0.2,2.8-0.6,4c-0.7,1.2-1.9,2-3.3,2.2L15.9,37l3.1,5.6c0.8,1,1.1,2.3,0.9,3.6c-0.2,1.4-1,2.7-2.2,3.4
		l-9.3,6l12.4,6.1c1.5,0.7,2.5,2,2.8,3.5s-0.1,3-1.1,4.2l-5.4,7.8l7.8,1.3c1.6,0.2,3,1.2,3.8,2.6c0.8,1.5,0.8,3.2,0,4.7L12,115.7
		l30.9-21.5c1.2-0.9,2.8-1.1,4.2-0.7s2.6,1.5,3.2,2.9l0.1,0.3l1.9,6.4L67,94c1.6-1.1,3.8-1.1,5.4-0.1l11.7,7.1l1.6-6.7
		c0.2-1.4,1.1-2.7,2.3-3.4c1.3-0.8,2.9-0.9,4.3-0.4l16.9,6.3L103.8,81c-0.6-1.3-0.5-2.8,0.1-4.1c0.6-1.3,1.8-2.3,3.2-2.6l13.1-3.9
		l-10.7-10.9C107.9,57.9,107.9,55.1,109.3,53.2z"/>
</g>
<path style="fill:#2F2F2F;" d="M126,67.9l-11.5-11.6l7.3-11.5l0.1-0.1c0.8-1.3,0.8-3,0.2-4.4c-0.6-1.3-1.7-2.2-3.1-2.6l-9.5-4.2
	l5.8-16.1c0.8-1.8,0.4-3.9-1-5.4s-3.6-1.9-5.5-1.1l-17.2,9.2l-4.4-8.6c-0.5-1.4-1.5-2.3-2.8-2.7c-1.5-0.5-3.3,0-4.6,1.1l-7.1,6.7
	L57.5,4.2c-1.2-1-2.7-1.4-4.2-1.1s-2.7,1.2-3.4,2.5L42.6,18L23,8.7c-1.8-0.8-3.8-0.6-5.3,0.7s-2.1,3.2-1.6,5.1l4.4,15.7l-7.3,1.2
	c-1.7,0.3-3.2,1.5-3.8,3.2c-0.6,1.5-0.3,3.3,0.7,4.6l3.3,6l-9.9,6.4c-1.5,1-2.4,2.8-2.2,4.6s1.3,3.3,2.9,4l12.9,6.3L11,75.4
	c-1.1,1.3-1.5,2.9-0.9,4.4c0.6,1.6,2.2,2.8,4.2,3l8.4,1.4L4.4,116.8c-1.1,2-0.7,4.5,1,6.1c0.9,0.8,2.1,1.3,3.3,1.3
	c1,0,2-0.3,2.8-0.9L45,100l1.9,6.3l0.1,0.3c0.6,1.4,1.7,2.4,3.2,2.9c1.4,0.4,2.9,0.2,4.1-0.7l15.4-9.4l12.4,7.5
	c1.4,0.9,3.2,1.1,4.7,0.4s2.6-2.1,2.8-3.7l1.6-6.9l17.9,6.7c1.9,0.7,4,0.2,5.3-1.3c1.3-1.4,1.7-3.5,0.9-5.3l-5.8-16.9l13.8-4.1
	c1.6-0.4,2.9-1.6,3.4-3.2C127.4,71,127.1,69.2,126,67.9z M107.1,74.4c-1.4,0.4-2.6,1.3-3.2,2.6c-0.6,1.3-0.7,2.8-0.1,4.1l5.4,15.8
	l-16.9-6.3c-1.4-0.5-3-0.4-4.3,0.4c-1.2,0.8-2.1,2-2.3,3.4l-1.6,6.7L72.4,94c-1.7-1.1-3.8-1.1-5.4,0.1l-14.8,9l-1.9-6.4l-0.1-0.3
	C49.6,95,48.5,94,47,93.5s-3-0.2-4.2,0.7l-30.9,21.5l16.7-29.9c0.8-1.5,0.8-3.2,0-4.7c-0.8-1.4-2.2-2.4-3.8-2.6L17,77.2l5.4-7.8
	c1-1.2,1.4-2.7,1.1-4.2c-0.3-1.6-1.4-2.9-2.8-3.5L8.4,55.6l9.3-6c1.2-0.8,2-2,2.2-3.4c0.2-1.3-0.2-2.6-0.9-3.6L15.9,37l6.9-1.2
	c1.4-0.2,2.6-1.1,3.3-2.2c0.7-1.2,0.9-2.6,0.6-4l-4.1-14.5l18.3,8.7c2.4,1.1,5.2,0.2,6.5-2.1l7.2-12.1l14.9,12.2
	c1.8,1.6,4.5,1.6,6.4,0l6.7-6.2l4,7.8c0.4,1.2,1.4,2.2,2.5,2.7c1.3,0.6,2.8,0.6,4,0l15.7-8.4l-5.2,14.5c-0.6,1.3-0.5,2.9,0.2,4.2
	c0.6,1.2,1.7,2.1,3.1,2.5l9.1,4l-6.6,10.4c-1.4,1.8-1.4,4.6,0.1,6.4l10.7,10.9L107.1,74.4z"/>
</svg>
